packages/foundations/assets/icons/functional/images/social/face_delighted_16.svg

<svg width="16" height="16" viewBox="0 0 16 16" fill="none" xmlns="http://www.w3.org/2000/svg">
<g clip-path="url(#clip0_187_349)">
<path fill-rule="evenodd" clip-rule="evenodd" d="M12 8C12 10.2056 10.2056 12 8.00002 12C5.79442 12 4.00002 10.2056 4.00002 8C4.00002 5.7944 5.79442 4 8.00002 4C10.2056 4 12 5.7944 12 8ZM2.40002 8C2.40002 11.0928 4.90722 13.6 8.00002 13.6C11.0928 13.6 13.6 11.0928 13.6 8C13.6 4.9072 11.0928 2.4 8.00002 2.4C4.90722 2.4 2.40002 4.9072 2.40002 8ZM9.64562 8.6832C9.43202 8.532 9.14322 8.5272 8.92242 8.668C8.90882 8.6768 8.57762 8.8848 7.98562 8.8848C7.39362 8.8848 7.06242 8.676 7.05842 8.6736C6.83682 8.5208 6.54322 8.5208 6.32402 8.6768C6.10482 8.8312 6.00482 9.108 6.07522 9.3672C6.21122 9.8688 6.78882 10.8168 7.99682 10.8168C9.21442 10.8168 9.77362 9.86 9.89842 9.3536C9.96242 9.1 9.85842 8.8368 9.64562 8.6832ZM6.43122 7.532C6.45442 7.5112 6.58002 7.4056 6.74882 7.4464C7.18002 7.544 7.60962 7.2816 7.71122 6.8512C7.81282 6.4216 7.54642 5.9904 7.11682 5.8888C6.06162 5.6408 5.36562 6.3336 5.28882 6.4128C4.99122 6.7248 5.00562 7.2056 5.30802 7.5136C5.46162 7.6704 5.66722 7.748 5.87442 7.748C6.07442 7.748 6.27442 7.676 6.43122 7.532ZM10.712 6.4128C10.6352 6.332 9.94002 5.6384 8.88402 5.8888C8.45362 5.9904 8.18802 6.4216 8.28962 6.8512C8.39122 7.2816 8.82242 7.544 9.25202 7.4464C9.41682 7.408 9.53922 7.5056 9.56802 7.5304C9.72402 7.6856 9.92802 7.764 10.1336 7.764C10.332 7.764 10.5304 7.6904 10.6856 7.5432C11.0048 7.2384 11.0168 6.732 10.712 6.4128Z" fill="#1A1C1F"/>
</g>
<defs>
<clipPath id="clip0_187_349">
<rect width="16" height="16" fill="white"/>
</clipPath>
</defs>
</svg>

<svg xmlns="http://www.w3.org/2000/svg" width="16" height="16" fill="none"><g clip-path="url(#a)"><path fill="#1A1C1F" fill-rule="evenodd" d="M12 8c0 2.206-1.794 4-4 4s-4-1.794-4-4 1.794-4 4-4 4 1.794 4 4M2.4 8a5.6 5.6 0 1 0 11.2 0A5.6 5.6 0 0 0 2.4 8m7.246.683a.65.65 0 0 0-.724-.015c-.013.009-.344.217-.936.217s-.924-.209-.928-.211a.64.64 0 0 0-.983.693c.136.502.714 1.45 1.922 1.45 1.217 0 1.777-.957 1.901-1.463a.64.64 0 0 0-.252-.67M6.43 7.532a.36.36 0 0 1 .318-.086.8.8 0 0 0 .368-1.558c-1.055-.247-1.751.446-1.828.525a.786.786 0 0 0 .019 1.1c.154.157.36.235.566.235.2 0 .4-.072.557-.216m4.281-1.12c-.077-.08-.772-.774-1.828-.523a.8.8 0 1 0 .368 1.557.37.37 0 0 1 .316.084.799.799 0 0 0 1.144-1.117" clip-rule="evenodd"/></g><defs><clipPath id="a"><path fill="#fff" d="M0 0h16v16H0z"/></clipPath></defs></svg>
